src/actions/24/view-certificate-export-server.svg

<svg viewBox="0 0 24 24" xmlns="http://www.w3.org/2000/svg">
 <defs>
  <style type="text/css">.ColorScheme-Text {
        color:#2e3440;
      }</style>
 </defs>
 <path class="ColorScheme-Text" d="m4 6v8h1v-7h14v5h1v-6h-16zm4.5 2c-0.831 0-1.5 0.669-1.5 1.5v1.5h-1v3h5v-3h-1v-1.5c0-0.831-0.669-1.5-1.5-1.5zm0 1c0.277 0 0.5 0.223 0.5 0.5v1.5h-1v-1.5c0-0.277 0.223-0.5 0.5-0.5zm3.5 0v1h6v-1h-6zm0 2v1h5v-1h-5zm0 2v1h4v-1h-4zm6.5 0-0.70703 0.70703 2.293 2.293h-4.293-0.79297v1h5.0859l-2.293 2.293 0.70703 0.70703 3.5-3.5-3.5-3.5zm-14.5 2v5h5v-5h-5zm2 1h2v1h-2v-1zm4 1v1h4v-1h-4zm-5 1h3v1h-3v-1z" fill="currentColor"/>
</svg>

<svg xmlns="http://www.w3.org/2000/svg" viewBox="0 0 24 24">
  <defs id="defs3051">
    <style type="text/css" id="current-color-scheme">
      .ColorScheme-Text {
        color:#2e3440;
      }
      </style>
  </defs>
 <path style="fill:currentColor;fill-opacity:1;stroke:none" 
     d="M 4 6 L 4 14 L 5 14 L 5 7 L 19 7 L 19 12 L 20 12 L 20 6 L 4 6 z M 8.5 8 C 7.669 8 7 8.669 7 9.5 L 7 11 L 6 11 L 6 14 L 11 14 L 11 11 L 10 11 L 10 9.5 C 10 8.669 9.331 8 8.5 8 z M 8.5 9 C 8.777 9 9 9.223 9 9.5 L 9 11 L 8 11 L 8 9.5 C 8 9.223 8.223 9 8.5 9 z M 12 9 L 12 10 L 18 10 L 18 9 L 12 9 z M 12 11 L 12 12 L 17 12 L 17 11 L 12 11 z M 12 13 L 12 14 L 16 14 L 16 13 L 12 13 z M 18.5 13 L 17.792969 13.707031 L 20.085938 16 L 15.792969 16 L 15 16 L 15 17 L 20.085938 17 L 17.792969 19.292969 L 18.5 20 L 21.292969 17.207031 L 22 16.5 L 21.292969 15.792969 L 18.5 13 z M 4 15 L 4 20 L 9 20 L 9 15 L 4 15 z M 6 16 L 8 16 L 8 17 L 6 17 L 6 16 z M 10 17 L 10 18 L 14 18 L 14 17 L 10 17 z M 5 18 L 8 18 L 8 19 L 5 19 L 5 18 z "
     class="ColorScheme-Text"
     />
</svg>
